X:1
T:Jolly Old St. Nicholas
T:Jolly Old St. Nicholas
%%score 1 ( 2 3 )
L:1/8
M:2/4
K:A
V:1 treble 
V:2 bass 
V:3 bass 
V:1
 [Ac][Ac] [Ac][Ac] | [GB][GB] [GB]2 | [FA][FA] [FA][FA] | [^Ec]4 | [FF][DF] [DF][DF] | %5
w: 1.~Jol- ly old Saint|Nich- o- las,|Lean your ear this|way!|Don't you tell a|
w: 2.~When the clock is|strik- ing twelve,|When I'm fast a-|sleep,|Down the chim- ney,|
w: 3.~John- ny wants a|pair of skates;|Su- sy wants a|dolly;|Nel- ly wants a|
 [CE][CE] [CA]2 | [DB][CA] [EB][Ac] [GB]4 | [Ac][Ac] [Ac][Ac] | [GB][GB] [GB]2 | %9
w: sin- gle soul|What I'm going to say;|Christ- mas Eve is|com- ing soon;|
w: broad and black,|With your pack you'll creep;|All the stock- ings|you will find|
w: sto- ry book;|She thinks dolls are folly;|As for me, my|lit- tle brain|
 [FA][FA] [FA][FA] | [^Ec]4 | F[DF] [DF][DF] | [CE][CE] [CA]2 | [DB][CA] [DB][Ec] | [CA]4 |] x4 |] %16
w: Now, you dear old|man,|Whis- per what you'll|bring to me;|Tell me if you|can.||
w: Hang- ing in a|row;|Mine will be the|short- est one,|You'll be sure to|know.||
w: Is- n't ver- y|bright;|Choose for me, Old|San- ta Claus,|What you think is|right.||
V:2
 z E, A,2 | z B, E2 | z A, C2 | z G, C2 | z F, A,2 | z C, E,2 | z E, E,2 x4 | z B,, E,2 | %8
 z E, A,2 | z B, E2 | z A, C2 | z G, C2 | z F, A,2 | z C, E,2 | [D,F,]2 [E,G,][E,E,] |] [A,,E,]4 |] %16
V:3
 A,,4 | E,4 | F,4 | C,4 | D,4 | A,,4 | E,,4 x4 | E,,4 | A,,4 | E,4 | F,4 | C,4 | D,4 | A,,4 | x4 |] %15
 x4 |] %16

